Adwaita++/actions/22/account-types-closed.svg

<svg height="22" width="22" xmlns="http://www.w3.org/2000/svg">
  <path d="m3 3v2.828125l5.171875 5.171875-5.171875 5.171875v2.828125h2.828125l5.171875-5.171875 5.171875 5.171875h2.828125v-2.828125l-5.171875-5.171875 5.171875-5.171875v-2.828125h-2.828125l-5.171875 5.171875-5.171875-5.171875z" fill="#444"/>
</svg>

<svg xmlns="http://www.w3.org/2000/svg" width="22" height="22" version="1.1">
 <defs>
  <style id="current-color-scheme" type="text/css">
   .ColorScheme-Text { color:#444444; } .ColorScheme-Highlight { color:#4285f4; }
  </style>
 </defs>
 <path style="fill:currentColor" class="ColorScheme-Text" d="M 3 3 L 3 5.828125 L 8.171875 11 L 3 16.171875 L 3 19 L 5.828125 19 L 11 13.828125 L 16.171875 19 L 19 19 L 19 16.171875 L 13.828125 11 L 19 5.828125 L 19 3 L 16.171875 3 L 11 8.171875 L 5.828125 3 L 3 3 z"/>
</svg>
